!!!!SEGMENT: pl-wtm--r-1226--014_lodwigowski-edward-stefan--chlopek-ci-ja-chlopek.krn
!!!cenid: 18xx:1930
!!!COM: Łodwigowski, Edward Stefan
!!!COM-rismid: pe30111147
!!!CDT: 1815/08/14-1895/11/12
!!!CNT: Polish
!!!OTL: Chłopek ci ja chłopek
!!!PDT:
!!!AGN:
!!!SMS-siglum: PL-Wtm
!!!SMS-shelfmark: R 1226
!!!SMS-shelfwork: 014 W
!!!SMS-variant:
!!!SMS-altvar:
!!!NIFC-rismid: 1001084001
!!!URL-scan: http://repozytorium.nifc.pl/skany/pl-wtm-nut--r1226-1227
!!!ONB-nifc: UWAGA: No. 62
!!!OMD: No 62. Allegretto
**kern	**fing	**kern	**fing	**dynam
*part1	*	*part1	*	*part1
*staff2	*	*staff1	*	*
*I"Fortepian	*	*I"Fortepian	*	*
*clefF4	*	*clefG2	*	*
*k[b-e-]	*	*k[b-e-]	*	*
*M3/8	*	*M3/8	*	*
=1	=1	=1	=1	=1
*all\right	*	*all\right	*	*
*clefG2	*	*	*	*
*^	*	*	*	*
*	*	*^	*	*	*
*	*	*	*below	*	*	*
!	!	!	!	!LO:TX:a:t=Chłopek ci ja chłopek. P.L.P.	!	!LO:DY:t=f.
8r	4.B-\	.	4	16.ff\LL	2	f
.	.	.	.	32ff\JJk	1	.
8fL 8d/	.	.	.	8bb-\L	4	.
8fJ 8d/	.	.	.	8bb-\J	3	.
=2	=2	=2	=2	=2	=2	=2
8r	4c\	.	3	8aa|\	.	.
4f^ 4e-/	.	.	.	4ccc^\	3	.
.	8A\	.	.	.	.	.
*	*	*v	*v	*	*	*
=3	=3	=3	=3	=3	=3
8r	4.B-\	.	(16bb-\LL	2	.
.	.	.	16ccc\JJ)	.	.
8fL 8d/	.	.	8ddd'\L	.	.
8fJ 8d/	.	.	8ddd'\J	3	.
=4	=4	=4	=4	=4	=4
*	*	*^	*	*	*
8r	4A\	.	4	8ccc'\	.	.
4f 4c/	.	.	.	4eee-^\	.	.
.	8F\	.	.	.	.	.
=5	=5	=5	=5	=5	=5	=5
8r	4.B-\	.	4	(8.ddd\L	3	.
8fL 8d/	.	.	.	.	.	.
.	.	.	.	16aa\L	1	.
8fJ 8d/	.	.	.	16bb-\	4	.
.	.	.	.	16gg\JJ)	.	.
*	*	*v	*v	*	*	*
!!LO:PB:g=original
=6	=6	=6	=6	=6	=6
8r	4.B-\	.	16.ff\LL	1	.
.	.	.	32ff\JJk	3	.
8fL 8d/	.	.	(8dd\L	.	.
8fJ 8d/	.	.	8ff\J)	.	.
=7	=7	=7	=7	=7	=7
8r	4.c\	.	16.ff\LL	2	.
.	.	.	32ff\JJk	1	.
8fL 8e-/	.	.	(8eee-\L	.	.
8fJ 8e-/	.	.	8aa\J	.	.
=8	=8	=8	=8	=8	=8
8r	4.B-\	.	8bb-|\)	.	.
8fL 8d/	.	.	4ddd^\	.	.
8fJ 8d/	.	.	.	.	.
=9	=9	=9	=9	=9	=9
8r	4.B-\	.	(8.ddd\L	5	.
8fL 8d/	.	.	.	.	.
.	.	.	16aa\L	2	.
8fJ 8d/	.	.	16bb-\	.	.
.	.	.	16gg\JJ	.	.
=10	=10	=10	=10	=10	=10
8r	4.B-\	.	16.ff\LL)	2	.
.	.	.	32ff\JJk	3	.
8fL 8d/	.	.	(8dd\L	1	.
8fJ 8d/	.	.	8ff\J)	3	.
=11	=11	=11	=11	=11	=11
8r	4.F\	.	16aa\LL	1	.
.	.	.	(16ccc\JJ	.	.
8e-L 8c/	.	.	8.eee-\L	.	.
8e-J 8c/	.	.	.	.	.
.	.	.	16aa\Jk	.	.
=12	=12	=12	=12	=12	=12
8d/L	8B-\L	.	8ccc\L	.	.
8d/J	8B-\J	.	8bb-\J)	.	.
8r	8ryy	.	8r	.	.
*v	*v	*	*	*	*
==	==	==	==	==
*-	*-	*-	*-	*-
!!!system-decoration: {s1,s2}
!!!RDF**kern: | = vertical stroke
!!!ENC: Marta Lawrence
!!!ENC: 2021-05-02
!!!ENC: Andrzej Gręziak
!!!END: 2021-04-17
